src/assets/selectIconsSpells/veleno_2.svg

<svg xmlns="http://www.w3.org/2000/svg" viewBox="0 0 512 512"><path d="M0 0h512v512H0z"/><path fill="#fff" d="M196.78 78.688c-96.69 0-175.343 78.72-175.343 175.468 0 12.63 6.202 24.213 15.813 33.75 9.61 9.537 22.727 17.488 38.53 24.125 31.61 13.275 74.124 21.158 121 21.158 8.047 0 15.966-.236 23.72-.688 1.125 1.65 2.437 3.157 3.844 4.5 4.3 4.107 9.682 7.19 15.937 9.72 12.512 5.056 28.642 7.874 46.407 7.874 17.766 0 33.865-2.818 46.375-7.875 6.256-2.53 11.67-5.613 15.97-9.72 4.3-4.107 7.656-9.77 7.656-16.28 0-9.865-2.202-19.213-6.125-27.658 2.032-1.67 3.957-3.378 5.75-5.156 3.39-3.363 6.33-6.984 8.75-10.812.988.01 1.974.03 2.968.03 31.826 0 60.67-5.25 82.408-14.28 10.868-4.516 20.016-9.954 26.875-16.688 6.858-6.734 11.562-15.283 11.562-24.72 0-66.047-54.29-119.75-120.844-119.75-22.145 0-42.93 5.945-60.81 16.314-30.172-24.555-68.606-39.313-110.44-39.313zm0 18.687c86.573 0 156.657 70.14 156.657 156.78 0 6.61-3.084 13.33-10.28 20.47-.885.878-1.81 1.783-2.813 2.656-12.89-14.89-32.22-24.342-53.656-24.342-36.025 0-66.126 26.71-69.657 61.03-6.635.352-13.385.532-20.25.532-44.753 0-85.266-7.727-113.75-19.688-14.24-5.98-25.427-13.046-32.624-20.187-7.196-7.14-10.28-13.86-10.28-20.47 0-86.642 70.083-156.78 156.655-156.78zm171.25 23c56.543 0 102.158 45.226 102.158 101.063 0 3.35-1.538 7.024-5.97 11.375-4.43 4.35-11.623 8.88-20.937 12.75-17.818 7.404-43.217 12.42-71.405 12.843.155-1.403.25-2.818.25-4.25 0-31.565-8.36-61.223-23-86.844 13.78-3.103 23.656-11.57 23.656-21.5 0-11.298-12.783-20.666-29.56-22.437 7.942-1.955 16.246-3 24.81-3zm-193.967 5.875c-36.642 0-66.344 18.525-66.344 41.344 0 22.818 29.7 41.312 66.343 41.312 36.64 0 66.343-18.494 66.343-41.312 0-22.82-29.702-41.344-66.344-41.344zm320.312 137c-30.4 23.526-70.607 32.934-110.406 36.53l-12.814 1.158 5.063 11.843c7.44 17.37 4.932 28.445-3.22 38.19-8.152 9.742-23.698 17.64-42.844 21.874-38.29 8.47-89.822 1.9-118.094-17.47l-2.906-1.968-3.47.406c-60.5 7.144-128.014-12.125-186.56-44.968v185.22l118.905-.002c-2.954-8.158-2.075-17.375 2.626-24.906-18.91 7.375-41.197 3.46-56.47-11.812-20.595-20.597-20.595-53.997 0-74.594 10.3-10.298 23.785-15.438 37.283-15.438 13.496 0 26.982 5.14 37.28 15.438 20.2 20.2 20.575 52.7 1.156 73.375 8.9-1.583 18.404 1.03 25.28 7.906 8.12 8.12 10.332 19.903 6.658 30.033h302.53V263.25zm-207.688 8.375c28.617 0 51.313 22.084 51.313 49.094 0 .256-.033 1.02-1.875 2.78-1.842 1.76-5.337 3.965-10.063 5.875-9.45 3.82-23.653 6.53-39.375 6.53-15.72 0-29.956-2.71-39.406-6.53-4.724-1.91-8.188-4.115-10.03-5.875-1.842-1.76-1.906-2.524-1.906-2.78 0-9.827 3.014-18.993 8.22-26.69 4.427 5.18 12.748 8.69 22.28 8.69 14.18 0 25.656-7.73 25.656-17.25 0-5.527-3.887-10.44-9.906-13.595 1.678-.157 3.37-.25 5.094-.25zm131.47 107.688c8.272 0 16.53 3.157 22.843 9.468 12.623 12.625 12.623 33.097 0 45.72-12.623 12.623-33.064 12.623-45.688 0-12.623-12.623-12.623-33.095 0-45.72 6.312-6.31 14.572-9.467 22.844-9.467zm-200.032 28.75c5.92 0 11.828 2.265 16.344 6.78 9.03 9.033 9.03 23.656 0 32.688-9.033 9.033-23.688 9.033-32.72 0-9.032-9.03-9.032-23.654 0-32.686 4.516-4.516 10.456-6.78 16.375-6.78z"/></svg>

<?xml version="1.0" encoding="UTF-8" standalone="no"?>
<!DOCTYPE svg PUBLIC "-//W3C//DTD SVG 1.1//EN" "http://www.w3.org/Graphics/SVG/1.1/DTD/svg11.dtd">
<svg width="100%" height="100%" viewBox="0 0 512 512" version="1.1" xmlns="http://www.w3.org/2000/svg" xmlns:xlink="http://www.w3.org/1999/xlink" xml:space="preserve" xmlns:serif="http://www.serif.com/" style="fill-rule:evenodd;clip-rule:evenodd;stroke-linejoin:round;stroke-miterlimit:2;">
    <rect x="0" y="0" width="512" height="512" style="fill-rule:nonzero;"/>
    <path d="M494.372,263.252L494.372,263.25L494.375,263.25C494.374,263.251 494.373,263.252 494.372,263.252ZM196.78,78.688C100.09,78.688 21.437,157.408 21.437,254.156C21.437,266.786 27.639,278.369 37.25,287.906C46.86,297.443 59.977,305.394 75.78,312.031C107.39,325.306 149.904,333.189 196.78,333.189C204.827,333.189 212.746,332.953 220.5,332.501C221.625,334.151 222.937,335.658 224.344,337.001C228.644,341.108 234.026,344.191 240.281,346.721C252.793,351.777 268.923,354.595 286.688,354.595C304.454,354.595 320.553,351.777 333.063,346.72C339.319,344.19 344.733,341.107 349.033,337C353.333,332.893 356.689,327.23 356.689,320.72C356.689,310.855 354.487,301.507 350.564,293.062C352.596,291.392 354.521,289.684 356.314,287.906C359.704,284.543 362.644,280.922 365.064,277.094C366.052,277.104 367.038,277.124 368.032,277.124C399.858,277.124 428.702,271.874 450.44,262.844C461.308,258.328 470.456,252.89 477.315,246.156C484.173,239.422 488.877,230.873 488.877,221.436C488.877,155.389 434.587,101.686 368.033,101.686C345.888,101.686 325.103,107.631 307.223,118C277.051,93.445 238.617,78.687 196.783,78.687L196.78,78.688ZM196.78,97.375C283.353,97.375 353.437,167.515 353.437,254.155C353.437,260.765 350.353,267.485 343.157,274.625C342.272,275.503 341.347,276.408 340.344,277.281C327.454,262.391 308.124,252.939 286.688,252.939C250.663,252.939 220.562,279.649 217.031,313.969C210.396,314.321 203.646,314.501 196.781,314.501C152.028,314.501 111.515,306.774 83.031,294.813C68.791,288.833 57.604,281.767 50.407,274.626C43.211,267.486 40.127,260.766 40.127,254.156C40.127,167.514 110.21,97.376 196.782,97.376L196.78,97.375ZM368.03,120.375C424.573,120.375 470.188,165.601 470.188,221.438C470.188,224.788 468.65,228.462 464.218,232.813C459.788,237.163 452.595,241.693 443.281,245.563C425.463,252.967 400.064,257.983 371.876,258.406C372.031,257.003 372.126,255.588 372.126,254.156C372.126,222.591 363.766,192.933 349.126,167.312C362.906,164.209 372.782,155.742 372.782,145.812C372.782,134.514 359.999,125.146 343.222,123.375C351.164,121.42 359.468,120.375 368.032,120.375L368.03,120.375ZM174.063,126.25C137.421,126.25 107.719,144.775 107.719,167.594C107.719,190.412 137.419,208.906 174.062,208.906C210.702,208.906 240.405,190.412 240.405,167.594C240.405,144.774 210.703,126.25 174.061,126.25L174.063,126.25ZM286.687,271.625C315.304,271.625 338,293.709 338,320.719C338,320.975 337.967,321.739 336.125,323.499C334.283,325.259 330.788,327.464 326.062,329.374C316.612,333.194 302.409,335.904 286.687,335.904C270.967,335.904 256.731,333.194 247.281,329.374C242.557,327.464 239.093,325.259 237.251,323.499C235.409,321.739 235.345,320.975 235.345,320.719C235.345,310.892 238.359,301.726 243.565,294.029C247.992,299.209 256.313,302.719 265.845,302.719C280.025,302.719 291.501,294.989 291.501,285.469C291.501,279.942 287.614,275.029 281.595,271.874C283.273,271.717 284.965,271.624 286.689,271.624L286.687,271.625Z" style="fill:rgb(86,255,0);fill-rule:nonzero;"/>
    <path d="M494.372,263.252L494.372,494.065L191.842,494.065C195.516,483.935 193.304,472.152 185.184,464.032C178.308,457.156 168.804,454.543 159.904,456.126C179.323,435.451 178.948,402.951 158.748,382.751C148.45,372.453 134.964,367.313 121.468,367.313C107.97,367.313 94.485,372.453 84.185,382.751C63.59,403.348 63.59,436.748 84.185,457.345C99.458,472.617 121.745,476.532 140.655,469.157C135.954,476.688 135.075,485.905 138.029,494.063L19.124,494.065L19.124,308.845C77.67,341.688 145.184,360.957 205.684,353.813L209.154,353.407L212.06,355.375C240.332,374.745 291.864,381.315 330.154,372.845C349.3,368.611 364.846,360.713 372.998,350.971C381.15,341.226 383.658,330.151 376.218,312.781L371.155,300.938L383.969,299.78C423.767,296.184 463.972,286.777 494.372,263.252ZM218.125,408.063L218.124,408.065C212.205,408.065 206.265,410.329 201.749,414.845C192.717,423.877 192.717,438.501 201.749,447.531C210.781,456.564 225.436,456.564 234.469,447.531C243.499,438.499 243.499,423.876 234.469,414.843C229.953,410.328 224.045,408.063 218.125,408.063ZM418.157,379.313C409.885,379.313 401.624,382.471 395.312,388.781C382.689,401.406 382.689,421.878 395.312,434.501C407.936,447.124 428.377,447.124 441,434.501C453.623,421.878 453.623,401.406 441,388.781C434.687,382.47 426.429,379.313 418.157,379.313Z" style="fill:rgb(33,200,27);"/>
</svg>
